packages/icons/src/organisation-settings.svg

<svg viewBox="0 0 16 16" xmlns="http://www.w3.org/2000/svg">
<path fill-rule="evenodd" clip-rule="evenodd" d="M8.71363 14.1324H12.1409V11.5936H8.71363V14.1324ZM5.28637 14.1324H1.8591V11.5936H5.28637V14.1324ZM5.69905 7.25571H5.11272V8.65659H11.7113C11.9398 8.65659 12.1409 8.85751 12.1409 9.08582C12.1409 9.31413 11.9398 9.51504 11.7113 9.51504H10.8522V10.7443H12.5704C12.7989 10.7443 13 10.9452 13 11.1735V14.5708C13 14.7991 12.7989 15 12.5704 15H8.28408C8.0556 15 7.85453 14.7991 7.85453 14.5708V11.1735C7.85453 10.9452 8.0556 10.7443 8.28408 10.7443H10.0023V9.51504H3.99772V10.7443H5.71592C5.9444 10.7443 6.14547 10.9452 6.14547 11.1735V14.5708C6.14547 14.7991 5.9444 15 5.71592 15H1.42955C1.20107 15 1 14.7991 1 14.5708V11.1735C1 10.9452 1.20107 10.7443 1.42955 10.7443H3.14775V9.51504H2.28865C2.06017 9.51504 1.8591 9.31413 1.8591 9.08582C1.8591 8.85751 2.06017 8.65659 2.28865 8.65659H4.25362V7.25571H3.0198C2.79132 7.25571 2.59025 7.05479 2.59025 6.82648V3.42922C2.59025 3.20091 2.79132 3 3.0198 3L5.11272 3.00913C5.11272 3.00913 5.59711 3.00913 5.59711 3.42922C5.59711 3.84932 5.16756 3.86758 5.16756 3.86758L3.44935 3.85845V6.39726C3.44935 6.39726 5.10445 6.39726 5.67136 6.39726C6.29969 6.39726 6.50302 7.25571 5.69905 7.25571Z" fill="currentColor"/>
<path fill-rule="evenodd" clip-rule="evenodd" d="M13.9077 5.38968L13.3671 4.95215C13.3928 4.80286 13.4058 4.65184 13.4059 4.50057C13.4059 4.34901 13.3926 4.1974 13.3671 4.04896L13.9077 3.61144C13.991 3.54427 14.0215 3.43489 13.9844 3.33642L13.977 3.31612C13.8276 2.92159 13.6064 2.55906 13.3192 2.23872L13.3044 2.22231C13.2333 2.14322 13.1181 2.11371 13.0147 2.14808L12.3437 2.37389C12.0961 2.1817 11.8196 2.03012 11.5209 1.92389L11.3913 1.25978C11.3715 1.15743 11.2865 1.07774 11.1784 1.05897L11.1561 1.05508C10.7261 0.981641 10.2739 0.981641 9.84389 1.05508L9.82161 1.05897C9.71348 1.07774 9.62849 1.15743 9.60867 1.25978L9.47829 1.92701C9.182 2.03326 8.90716 2.18401 8.66123 2.37545L7.98532 2.14808C7.88216 2.11371 7.76661 2.14263 7.69566 2.22231L7.68078 2.23872C7.39357 2.55982 7.17239 2.92235 7.02304 3.31612L7.01561 3.33642C6.97848 3.43408 7.00898 3.5435 7.09236 3.61144L7.63952 4.05366C7.61394 4.20054 7.60154 4.35053 7.60154 4.49977C7.60154 4.64979 7.61394 4.79978 7.63952 4.94589L7.09236 5.3881C7.00898 5.4553 6.97848 5.56467 7.01561 5.66312L7.02304 5.68344C7.17239 6.07721 7.39357 6.4405 7.68078 6.76084L7.69566 6.77725C7.7667 6.85633 7.88184 6.88584 7.98532 6.85149L8.66123 6.62411C8.90715 6.81555 9.18199 6.96711 9.47829 7.0726L9.60867 7.73982C9.62849 7.84218 9.71348 7.92186 9.82161 7.9406L9.84389 7.94449C10.0604 7.98138 10.28 7.99996 10.5 8C10.7204 8 10.9415 7.98122 11.1561 7.94449L11.1784 7.9406C11.2865 7.92186 11.3715 7.84218 11.3913 7.73982L11.5209 7.07573C11.8196 6.96943 12.0961 6.81869 12.3437 6.62568L13.0147 6.85149C13.1178 6.88586 13.2334 6.85694 13.3044 6.77725L13.3192 6.76084C13.6064 6.43974 13.8276 6.07721 13.977 5.68344L13.9844 5.66312C14.0215 5.56705 13.991 5.45767 13.9077 5.38968ZM12.7813 4.14069C12.8021 4.25973 12.8126 4.38019 12.8126 4.50086C12.8126 4.62199 12.8019 4.74306 12.7813 4.86101L12.7268 5.17433L13.3433 5.67359C13.2501 5.87749 13.1321 6.06971 12.9917 6.24861L12.2259 5.99156L11.9667 6.19315C11.7695 6.34627 11.5499 6.4666 11.3123 6.55098L10.9978 6.66268L10.8501 7.42055C10.6182 7.44554 10.3814 7.44554 10.1486 7.42055L10.0009 6.66112L9.68892 6.54785C9.4537 6.46346 9.23502 6.34314 9.03941 6.19078L8.7803 5.98843L8.00944 6.24781C7.86916 6.06889 7.75194 5.87593 7.65789 5.67281L8.28096 5.16889L8.22733 4.85638C8.20751 4.73994 8.19679 4.61961 8.19679 4.50087C8.19679 4.38134 8.2067 4.26177 8.22733 4.14538L8.28096 3.83288L7.65789 3.32893C7.75114 3.12503 7.86916 2.93283 8.00944 2.75391L8.7803 3.01328L9.03941 2.81093C9.23502 2.65857 9.4537 2.53825 9.68892 2.4539L10.0017 2.34215L10.1494 1.58273C10.3814 1.55773 10.6182 1.55773 10.8509 1.58273L10.9987 2.3406L11.3131 2.45234C11.5499 2.53669 11.7703 2.65701 11.9675 2.81013L12.2267 3.01172L12.9925 2.75468C13.1329 2.93359 13.2501 3.1266 13.3441 3.32973L12.7276 3.82895L12.7813 4.14069Z" fill="currentColor"/>
<path fill-rule="evenodd" clip-rule="evenodd" d="M10.5333 3.05338C9.78863 3.05338 9.18491 3.65715 9.18491 4.40183C9.18491 5.14655 9.78863 5.75027 10.5333 5.75027C11.278 5.75027 11.8818 5.14655 11.8818 4.40183C11.8818 3.65715 11.278 3.05338 10.5333 3.05338ZM11.1402 5.00915C10.9778 5.17084 10.7625 5.26047 10.5334 5.26047C10.3043 5.26047 10.089 5.17083 9.92661 5.00915C9.76494 4.84675 9.67533 4.63146 9.67533 4.40236C9.67533 4.17331 9.76494 3.95799 9.92661 3.79557C10.089 3.63313 10.3043 3.54429 10.5334 3.54429C10.7625 3.54429 10.9778 3.63313 11.1402 3.79557C11.3019 3.958 11.3915 4.17331 11.3915 4.40236C11.3915 4.63146 11.3019 4.84675 11.1402 5.00915Z" fill="currentColor"/>
</svg>

<svg xmlns="http://www.w3.org/2000/svg" viewBox="0 0 16 16"><path fill="currentColor" fill-rule="evenodd" d="M8.714 14.132h3.427v-2.538H8.714v2.538Zm-3.428 0H1.86v-2.538h3.427v2.538ZM5.7 7.256h-.586v1.4h6.598c.229 0 .43.202.43.43 0 .228-.201.429-.43.429h-.859v1.23h1.718c.229 0 .43.2.43.429v3.397c0 .228-.201.429-.43.429H8.284c-.228 0-.43-.2-.43-.43v-3.396c0-.229.202-.43.43-.43h1.718V9.515H3.998v1.23h1.718c.228 0 .43.2.43.429v3.397c0 .228-.202.429-.43.429H1.43C1.2 15 1 14.8 1 14.57v-3.396c0-.229.201-.43.43-.43h1.718V9.515h-.86c-.228 0-.429-.2-.429-.43 0-.227.201-.428.43-.428h1.965V7.256H3.02c-.229 0-.43-.201-.43-.43V3.43c0-.228.201-.429.43-.429l2.093.01s.484 0 .484.42-.43.438-.43.438l-1.718-.01v2.54h2.222c.629 0 .832.858.028.858Z" clip-rule="evenodd"/><path fill="currentColor" fill-rule="evenodd" d="m13.908 5.39-.54-.438a2.672 2.672 0 0 0 0-.903l.54-.438a.242.242 0 0 0 .076-.275l-.007-.02a3.428 3.428 0 0 0-.658-1.077l-.015-.017a.275.275 0 0 0-.29-.074l-.67.226a2.952 2.952 0 0 0-.823-.45l-.13-.664a.258.258 0 0 0-.213-.201l-.022-.004a3.935 3.935 0 0 0-1.312 0l-.022.004a.258.258 0 0 0-.213.2l-.13.668a2.946 2.946 0 0 0-.818.448l-.676-.227a.274.274 0 0 0-.29.074l-.014.017a3.444 3.444 0 0 0-.658 1.077l-.007.02a.242.242 0 0 0 .076.275l.548.443a2.606 2.606 0 0 0 0 .892l-.548.442a.242.242 0 0 0-.076.275l.007.02c.15.394.37.758.658 1.078l.015.016c.07.08.186.109.29.074l.675-.227c.246.192.521.343.817.449l.13.667c.02.102.105.182.214.2l.022.004a3.912 3.912 0 0 0 1.312 0l.022-.003a.258.258 0 0 0 .213-.201l.13-.664c.299-.107.575-.257.823-.45l.67.225a.274.274 0 0 0 .29-.074l.015-.016c.287-.321.509-.684.658-1.078l.007-.02a.24.24 0 0 0-.076-.273ZM12.78 4.14a2.092 2.092 0 0 1 0 .721l-.054.313.616.5a2.85 2.85 0 0 1-.351.575l-.766-.257-.26.201a2.342 2.342 0 0 1-.654.358l-.314.112-.148.758a3.291 3.291 0 0 1-.701 0L10 6.66l-.312-.113a2.343 2.343 0 0 1-.65-.357l-.259-.203-.77.26a2.918 2.918 0 0 1-.352-.575l.623-.504-.054-.313a2.132 2.132 0 0 1 0-.71l.054-.313-.623-.504c.093-.204.211-.396.351-.575l.771.26.26-.203c.195-.152.414-.273.649-.357l.313-.112.147-.76a3.29 3.29 0 0 1 .702 0l.148.759.314.111c.237.085.457.205.654.358l.26.202.765-.257c.14.179.258.372.352.575l-.616.499.053.312Z" clip-rule="evenodd"/><path fill="currentColor" fill-rule="evenodd" d="M10.533 3.053a1.348 1.348 0 1 0 0 2.697 1.348 1.348 0 0 0 0-2.697Zm.607 1.956a.855.855 0 0 1-1.213 0 .855.855 0 0 1 0-1.213.852.852 0 0 1 .606-.252.855.855 0 0 1 .607 1.465Z" clip-rule="evenodd"/></svg>
